!!! OTL: Berkowitz147
!!! Chapter: 1
!!! Section: I
!!! Page: 33
!!! Mode: 
!!! Encoder: DJB
**kern
*staff1
*I"Piano
=1-
*clefC3
*k[]
*C:
*M4/4
8g\L
8e\J
4r
8r
8a\L
8g\
8e\J
=2
8f\L
8d\J
4r
8r
8d\L
8e\
8f\J
=3
8e\L
8c\J
8r
8f\
8e\L
8c\J
8r
8a\
=4
2e\
8d\L
8B\
8c\
8d\J
=5
8e\L
8c\J
4r
8r
8e\L
8f\
8a\J
=6
8g\L
8cc\J
8r
8b\
8a\L
8f\J
8r
8e\
=7
!!linebreak:original
8d\L
8c\
8d\
8a\J
8g\L
8e\
8f\
8cc\J
=8
8b\L
8a\
8g\
8e\J
4c\
4r
==
*-
